public/avatar/shoe/156.svg

<svg xmlns:xlink="http://www.w3.org/1999/xlink" height="38.3" width="36.05" xmlns="http://www.w3.org/2000/svg"><use height="16.7" transform="translate(8.95 10.2)" width="23.25" xlink:href="#a"/><defs><g id="a" fill-rule="evenodd"><path d="M3.35-4.15q1.65.4 3 2.5Q7.5.25 8.1 3.25q.45 2.6.2 3.75l-.15.2q-1.55 1.9-7.1 3.3-4.8 1.2-7.3 1-.65.5-2.6.5-2.65.2-3.25-1v-.05q-1.8.25-2.55-1l-.1-.75-.1-1.2q0-2.5 2-3.25 5.65-6.55 9.7-8.4 2.9-1.3 6.5-.5" fill="#363636" transform="translate(14.85 4.65)"/><path d="M6.35 1.6q1.05 3.6.65 5-2.25 2.9-13.35 3.65-.3.7-2.8.55-2.5-.05-1.75-1l-1.95-.05-.55-.5Q-13.6 6-12 5.55q8.4-10 14.8-8.6 2.3.55 3.55 4.65" fill="#fff" transform="translate(14.85 4.65)"/><path d="m2.25-3.15.55.1q2.3.55 3.55 4.65 1.05 3.6.65 5-2.25 2.9-13.35 3.65-.15.45-2.15.55-.2-1.6.65-2.25.75-.6 1.45.15 6.3 0 9.05-2.75 3.15-4.6-.4-9.1M-10.25 6v.05q.1.15-.2.3l-.45.4-.55 1.05-.25 1.2q0 .55-.15.8l-.5.15-.35-.95q-.15-1.05.1-1.55l1.1-1.2q.85-.45 1.25-.25" fill="#b4c7cc" transform="translate(14.85 4.65)"/><path d="M-9.5 6.55q.25.65-.4.75l-.6.55q-.4.65-.4 1.15l-.05 1.05q0 .5-.55.5-.5 0-.65-.75v-1l.55-1.6q.6-.75 1.25-1 .6-.25.85.35" fill="#333" transform="translate(14.85 4.65)"/><path d="m5.3-4.45.5.8q.45.95.2 1.6 1.3 1.5 1.65 3.8-3.9.6-4.3 4.25l-.3 3.85Q.15 11.2-4.9 11.3q-.25-2.2-2.25-4.35-2.45-2.85-5.6-2.1Q-6.5-2.4-4.1-3q-.6-.3.1-1.65l9.3.2" transform="translate(14.85 4.65)"/><path d="M4.35-4.45q.65 1.4-.6 2.2Q2.3-.95-1.6 1.35q-3.5 2.5-5.3 5.85-2.55-3.1-5.85-2.35Q-6.5-2.4-4.1-3q-.6-.3.1-1.65l8.35.2" fill="#323333" transform="translate(14.85 4.65)"/></g></defs></svg>

<?xml version="1.0" encoding="UTF-8" standalone="no"?>
<svg xmlns:xlink="http://www.w3.org/1999/xlink" height="38.3px" width="36.05px" xmlns="http://www.w3.org/2000/svg">
  <g transform="matrix(1.0, 0.0, 0.0, 1.0, 23.8, 14.85)">
    <use height="16.7" transform="matrix(1.0, 0.0, 0.0, 1.0, -14.85, -4.65)" width="23.25" xlink:href="#shape0"/>
  </g>
  <defs>
    <g id="shape0" transform="matrix(1.0, 0.0, 0.0, 1.0, 14.85, 4.65)">
      <path d="M3.35 -4.15 Q5.0 -3.75 6.35 -1.65 7.5 0.25 8.1 3.25 8.55 5.85 8.3 7.0 L8.15 7.2 Q6.6 9.1 1.05 10.5 -3.75 11.7 -6.25 11.5 -6.9 12.0 -8.85 12.0 -11.5 12.2 -12.1 11.0 L-12.1 10.95 Q-13.9 11.2 -14.65 9.95 L-14.75 9.2 -14.85 8.0 Q-14.85 5.5 -12.85 4.75 -7.2 -1.8 -3.15 -3.65 -0.25 -4.95 3.35 -4.15" fill="#363636" fill-rule="evenodd" stroke="none"/>
      <path d="M6.35 1.6 Q7.4 5.2 7.0 6.6 4.75 9.5 -6.35 10.25 -6.65 10.95 -9.15 10.8 -11.65 10.75 -10.9 9.8 L-12.85 9.75 -13.4 9.25 Q-13.6 6.0 -12.0 5.55 -3.6 -4.45 2.8 -3.05 5.1 -2.5 6.35 1.6" fill="#ffffff" fill-rule="evenodd" stroke="none"/>
      <path d="M2.25 -3.15 L2.8 -3.05 Q5.1 -2.5 6.35 1.6 7.4 5.2 7.0 6.6 4.75 9.5 -6.35 10.25 -6.5 10.7 -8.5 10.8 -8.7 9.2 -7.85 8.55 -7.1 7.95 -6.4 8.7 -0.1 8.7 2.65 5.95 5.8 1.35 2.25 -3.15" fill="#b4c7cc" fill-rule="evenodd" stroke="none"/>
      <path d="M-10.25 6.0 L-10.25 6.05 Q-10.15 6.2 -10.45 6.35 L-10.9 6.75 -11.45 7.8 -11.7 9.0 Q-11.7 9.55 -11.85 9.8 L-12.35 9.95 -12.7 9.0 Q-12.85 7.95 -12.6 7.45 L-11.5 6.25 Q-10.65 5.8 -10.25 6.0" fill="#b4c7cc" fill-rule="evenodd" stroke="none"/>
      <path d="M-9.5 6.55 Q-9.25 7.2 -9.9 7.3 L-10.5 7.85 Q-10.9 8.5 -10.9 9.0 L-10.95 10.05 Q-10.95 10.55 -11.5 10.55 -12.0 10.55 -12.15 9.8 L-12.15 8.8 -11.6 7.2 Q-11.0 6.45 -10.35 6.2 -9.75 5.95 -9.5 6.55" fill="#333333" fill-rule="evenodd" stroke="none"/>
      <path d="M5.3 -4.45 L5.8 -3.65 Q6.25 -2.7 6.0 -2.05 7.3 -0.55 7.65 1.75 3.75 2.35 3.35 6.0 L3.05 9.85 Q0.15 11.2 -4.9 11.3 -5.15 9.1 -7.15 6.95 -9.6 4.1 -12.75 4.85 -6.5 -2.4 -4.1 -3.0 -4.7 -3.3 -4.0 -4.65 L5.3 -4.45" fill="#000000" fill-rule="evenodd" stroke="none"/>
      <path d="M4.35 -4.45 Q5.0 -3.05 3.75 -2.25 2.3 -0.95 -1.6 1.35 -5.1 3.85 -6.9 7.2 -9.45 4.1 -12.75 4.85 -6.5 -2.4 -4.1 -3.0 -4.7 -3.3 -4.0 -4.65 L4.35 -4.45" fill="#323333" fill-rule="evenodd" stroke="none"/>
    </g>
  </defs>
</svg>
